X:331 
T:Sligo Chorus, The  
S:Ennis
B:ONMI.1273
F:file ID: onmi.reels/331slc
Z:Brennan/Black
R:reel
Q:180
M:C|
L:1/8
K:D
AG|FDAD BDAD|FDAc d2AG|FDAD BGG2|BdcA GBAG|
FDAD BDAD|FDAc d2Ac|dfec dc (3ABc|dcAF G2||
AB|cABG A2AB|cAB^G A2ed|cBcd eaaf|gedc dfed|
cABG A2AB|cAB^G A2 (3ABc|dfec dcAc|dcAF G4|]

